third_party/noto/noto_2/emoji_u1f39e.svg

<svg enable-background="new 0 0 128 128" version="1.1" viewBox="0 0 128 128" xmlns="http://www.w3.org/2000/svg"><g opacity=".85"><rect x="4" y="33.83" width="120" height="61.97" fill="#B7855F"/></g><linearGradient id="b" x1="18.198" x2="87.209" y1="78.961" y2="57.926" gradientUnits="userSpaceOnUse"><stop stop-color="#424242" offset="0"/><stop stop-color="#44545B" offset=".3935"/><stop stop-color="#455A64" offset=".5171"/><stop stop-color="#445157" offset=".7406"/><stop stop-color="#424242" offset="1"/></linearGradient><path d="m124 34.96v-16.72h-120v16.73h11.98v59.71h-11.98v17.09h120v-17.1h-11.98v-59.71h11.98zm-10.65-8.94c0-0.91 0.74-1.65 1.65-1.65h2.18c0.91 0 1.65 0.74 1.65 1.65v4.01c0 0.91-0.74 1.65-1.65 1.65h-2.18c-0.91 0-1.65-0.74-1.65-1.65v-4.01zm-98.7 4.01c0 0.91-0.74 1.65-1.65 1.65h-2.18c-0.91 0-1.65-0.74-1.65-1.65v-4.01c0-0.91 0.74-1.65 1.65-1.65h2.18c0.91 0 1.65 0.74 1.65 1.65v4.01zm0 73.59c0 0.91-0.74 1.65-1.65 1.65h-2.18c-0.91 0-1.65-0.74-1.65-1.65v-4.02c0-0.91 0.74-1.65 1.65-1.65h2.18c0.91 0 1.65 0.74 1.65 1.65v4.02zm98.7-4.02c0-0.91 0.74-1.65 1.65-1.65h2.18c0.91 0 1.65 0.74 1.65 1.65v4.01c0 0.91-0.74 1.65-1.65 1.65h-2.18c-0.91 0-1.65-0.74-1.65-1.65v-4.01zm-11.58-73.58c0-0.91 0.74-1.65 1.65-1.65h2.18c0.91 0 1.65 0.74 1.65 1.65v4.01c0 0.91-0.74 1.65-1.65 1.65h-2.18c-0.91 0-1.65-0.74-1.65-1.65v-4.01zm-11.57 0c0-0.91 0.74-1.65 1.65-1.65h2.18c0.91 0 1.65 0.74 1.65 1.65v4.01c0 0.91-0.74 1.65-1.65 1.65h-2.18c-0.91 0-1.65-0.74-1.65-1.65v-4.01zm-11.58 0c0-0.91 0.74-1.65 1.65-1.65h2.18c0.91 0 1.65 0.74 1.65 1.65v4.01c0 0.91-0.74 1.65-1.65 1.65h-2.18c-0.91 0-1.65-0.74-1.65-1.65v-4.01zm-11.57 0c0-0.91 0.74-1.65 1.65-1.65h2.18c0.91 0 1.65 0.74 1.65 1.65v4.01c0 0.91-0.74 1.65-1.65 1.65h-2.18c-0.91 0-1.65-0.74-1.65-1.65v-4.01zm-11.58 0c0-0.91 0.74-1.65 1.65-1.65h2.18c0.91 0 1.65 0.74 1.65 1.65v4.01c0 0.91-0.74 1.65-1.65 1.65h-2.18c-0.91 0-1.65-0.74-1.65-1.65v-4.01zm-11.57 0c0-0.91 0.74-1.65 1.65-1.65h2.18c0.91 0 1.65 0.74 1.65 1.65v4.01c0 0.91-0.74 1.65-1.65 1.65h-2.18c-0.91 0-1.65-0.74-1.65-1.65v-4.01zm-11.58 0c0-0.91 0.74-1.65 1.65-1.65h2.18c0.91 0 1.65 0.74 1.65 1.65v4.01c0 0.91-0.74 1.65-1.65 1.65h-2.18c-0.91 0-1.65-0.74-1.65-1.65v-4.01zm-11.57 0c0-0.91 0.74-1.65 1.65-1.65h2.18c0.91 0 1.65 0.74 1.65 1.65v4.01c0 0.91-0.74 1.65-1.65 1.65h-2.18c-0.91 0-1.65-0.74-1.65-1.65v-4.01zm5.48 77.6c0 0.91-0.74 1.65-1.65 1.65h-2.18c-0.91 0-1.65-0.74-1.65-1.65v-4.02c0-0.91 0.74-1.65 1.65-1.65h2.18c0.91 0 1.65 0.74 1.65 1.65v4.02zm11.57 0c0 0.91-0.74 1.65-1.65 1.65h-2.18c-0.91 0-1.65-0.74-1.65-1.65v-4.02c0-0.91 0.74-1.65 1.65-1.65h2.18c0.91 0 1.65 0.74 1.65 1.65v4.02zm11.58 0c0 0.91-0.74 1.65-1.65 1.65h-2.18c-0.91 0-1.65-0.74-1.65-1.65v-4.02c0-0.91 0.74-1.65 1.65-1.65h2.18c0.91 0 1.65 0.74 1.65 1.65v4.02zm11.57 0c0 0.91-0.74 1.65-1.65 1.65h-2.18c-0.91 0-1.65-0.74-1.65-1.65v-4.02c0-0.91 0.74-1.65 1.65-1.65h2.18c0.91 0 1.65 0.74 1.65 1.65v4.02zm11.58 0c0 0.91-0.74 1.65-1.65 1.65h-2.18c-0.91 0-1.65-0.74-1.65-1.65v-4.02c0-0.91 0.74-1.65 1.65-1.65h2.18c0.91 0 1.65 0.74 1.65 1.65v4.02zm11.57 0c0 0.91-0.74 1.65-1.65 1.65h-2.18c-0.91 0-1.65-0.74-1.65-1.65v-4.02c0-0.91 0.74-1.65 1.65-1.65h2.18c0.91 0 1.65 0.74 1.65 1.65v4.02zm11.58 0c0 0.91-0.74 1.65-1.65 1.65h-2.18c-0.91 0-1.65-0.74-1.65-1.65v-4.02c0-0.91 0.74-1.65 1.65-1.65h2.18c0.91 0 1.65 0.74 1.65 1.65v4.02zm11.57 0c0 0.91-0.74 1.65-1.65 1.65h-2.18c-0.91 0-1.65-0.74-1.65-1.65v-4.02c0-0.91 0.74-1.65 1.65-1.65h2.18c0.91 0 1.65 0.74 1.65 1.65v4.02zm0.79-8.95h-88.08v-59.71h88.08v59.71z" fill="url(#b)"/><line x1="4.66" x2="124" y1="18.24" y2="18.24" fill="none" stroke="#757575" stroke-miterlimit="10" stroke-width=".9587"/><linearGradient id="a" x1="27.017" x2="88.012" y1="80.859" y2="54.936" gradientUnits="userSpaceOnUse"><stop stop-color="#FFCC80" stop-opacity="0" offset="0"/><stop stop-color="#FFCC80" stop-opacity=".4" offset=".4864"/><stop stop-color="#FFCC80" stop-opacity="0" offset="1"/></linearGradient><rect x="20.29" y="35.15" width="88.08" height="59.71" fill="url(#a)"/></svg>

<?xml version="1.0" encoding="utf-8"?>
<!-- Generator: Adobe Illustrator 25.2.3, SVG Export Plug-In . SVG Version: 6.00 Build 0)  -->
<svg version="1.1" id="Layer_2" xmlns="http://www.w3.org/2000/svg" xmlns:xlink="http://www.w3.org/1999/xlink" x="0px" y="0px"
	 viewBox="0 0 128 128" style="enable-background:new 0 0 128 128;" xml:space="preserve">
<g>
	<g style="opacity:0.85;">
		<rect x="4" y="33.83" style="fill:#B7855F;" width="120" height="61.97"/>
	</g>
	<g>
		<linearGradient id="SVGID_1_" gradientUnits="userSpaceOnUse" x1="18.1983" y1="78.9609" x2="87.2089" y2="57.9256">
			<stop  offset="0" style="stop-color:#424242"/>
			<stop  offset="0.3935" style="stop-color:#44545B"/>
			<stop  offset="0.5171" style="stop-color:#455A64"/>
			<stop  offset="0.7406" style="stop-color:#445157"/>
			<stop  offset="1" style="stop-color:#424242"/>
		</linearGradient>
		<path style="fill:url(#SVGID_1_);" d="M124,34.96V18.24H4v16.73h11.98v59.71H4v17.09h120V94.67h-11.98V34.96H124z M113.35,26.02
			c0-0.91,0.74-1.65,1.65-1.65h2.18c0.91,0,1.65,0.74,1.65,1.65v4.01c0,0.91-0.74,1.65-1.65,1.65H115c-0.91,0-1.65-0.74-1.65-1.65
			V26.02z M14.65,30.03c0,0.91-0.74,1.65-1.65,1.65h-2.18c-0.91,0-1.65-0.74-1.65-1.65v-4.01c0-0.91,0.74-1.65,1.65-1.65H13
			c0.91,0,1.65,0.74,1.65,1.65V30.03z M14.65,103.62c0,0.91-0.74,1.65-1.65,1.65h-2.18c-0.91,0-1.65-0.74-1.65-1.65V99.6
			c0-0.91,0.74-1.65,1.65-1.65H13c0.91,0,1.65,0.74,1.65,1.65V103.62z M113.35,99.6c0-0.91,0.74-1.65,1.65-1.65h2.18
			c0.91,0,1.65,0.74,1.65,1.65v4.01c0,0.91-0.74,1.65-1.65,1.65H115c-0.91,0-1.65-0.74-1.65-1.65V99.6z M101.77,26.02
			c0-0.91,0.74-1.65,1.65-1.65h2.18c0.91,0,1.65,0.74,1.65,1.65v4.01c0,0.91-0.74,1.65-1.65,1.65h-2.18c-0.91,0-1.65-0.74-1.65-1.65
			V26.02z M90.2,26.02c0-0.91,0.74-1.65,1.65-1.65h2.18c0.91,0,1.65,0.74,1.65,1.65v4.01c0,0.91-0.74,1.65-1.65,1.65h-2.18
			c-0.91,0-1.65-0.74-1.65-1.65V26.02z M78.62,26.02c0-0.91,0.74-1.65,1.65-1.65h2.18c0.91,0,1.65,0.74,1.65,1.65v4.01
			c0,0.91-0.74,1.65-1.65,1.65h-2.18c-0.91,0-1.65-0.74-1.65-1.65V26.02z M67.05,26.02c0-0.91,0.74-1.65,1.65-1.65h2.18
			c0.91,0,1.65,0.74,1.65,1.65v4.01c0,0.91-0.74,1.65-1.65,1.65H68.7c-0.91,0-1.65-0.74-1.65-1.65V26.02z M55.47,26.02
			c0-0.91,0.74-1.65,1.65-1.65h2.18c0.91,0,1.65,0.74,1.65,1.65v4.01c0,0.91-0.74,1.65-1.65,1.65h-2.18c-0.91,0-1.65-0.74-1.65-1.65
			V26.02z M43.9,26.02c0-0.91,0.74-1.65,1.65-1.65h2.18c0.91,0,1.65,0.74,1.65,1.65v4.01c0,0.91-0.74,1.65-1.65,1.65h-2.18
			c-0.91,0-1.65-0.74-1.65-1.65V26.02z M32.32,26.02c0-0.91,0.74-1.65,1.65-1.65h2.18c0.91,0,1.65,0.74,1.65,1.65v4.01
			c0,0.91-0.74,1.65-1.65,1.65h-2.18c-0.91,0-1.65-0.74-1.65-1.65V26.02z M20.75,26.02c0-0.91,0.74-1.65,1.65-1.65h2.18
			c0.91,0,1.65,0.74,1.65,1.65v4.01c0,0.91-0.74,1.65-1.65,1.65H22.4c-0.91,0-1.65-0.74-1.65-1.65V26.02z M26.23,103.62
			c0,0.91-0.74,1.65-1.65,1.65H22.4c-0.91,0-1.65-0.74-1.65-1.65V99.6c0-0.91,0.74-1.65,1.65-1.65h2.18c0.91,0,1.65,0.74,1.65,1.65
			V103.62z M37.8,103.62c0,0.91-0.74,1.65-1.65,1.65h-2.18c-0.91,0-1.65-0.74-1.65-1.65V99.6c0-0.91,0.74-1.65,1.65-1.65h2.18
			c0.91,0,1.65,0.74,1.65,1.65V103.62z M49.38,103.62c0,0.91-0.74,1.65-1.65,1.65h-2.18c-0.91,0-1.65-0.74-1.65-1.65V99.6
			c0-0.91,0.74-1.65,1.65-1.65h2.18c0.91,0,1.65,0.74,1.65,1.65V103.62z M60.95,103.62c0,0.91-0.74,1.65-1.65,1.65h-2.18
			c-0.91,0-1.65-0.74-1.65-1.65V99.6c0-0.91,0.74-1.65,1.65-1.65h2.18c0.91,0,1.65,0.74,1.65,1.65V103.62z M72.53,103.62
			c0,0.91-0.74,1.65-1.65,1.65H68.7c-0.91,0-1.65-0.74-1.65-1.65V99.6c0-0.91,0.74-1.65,1.65-1.65h2.18c0.91,0,1.65,0.74,1.65,1.65
			V103.62z M84.1,103.62c0,0.91-0.74,1.65-1.65,1.65h-2.18c-0.91,0-1.65-0.74-1.65-1.65V99.6c0-0.91,0.74-1.65,1.65-1.65h2.18
			c0.91,0,1.65,0.74,1.65,1.65V103.62z M95.68,103.62c0,0.91-0.74,1.65-1.65,1.65h-2.18c-0.91,0-1.65-0.74-1.65-1.65V99.6
			c0-0.91,0.74-1.65,1.65-1.65h2.18c0.91,0,1.65,0.74,1.65,1.65V103.62z M107.25,103.62c0,0.91-0.74,1.65-1.65,1.65h-2.18
			c-0.91,0-1.65-0.74-1.65-1.65V99.6c0-0.91,0.74-1.65,1.65-1.65h2.18c0.91,0,1.65,0.74,1.65,1.65V103.62z M108.04,94.67H19.96
			V34.96h88.08V94.67z"/>
		<line style="fill:none;stroke:#757575;stroke-width:0.9587;stroke-miterlimit:10;" x1="4.66" y1="18.24" x2="124" y2="18.24"/>
		<linearGradient id="SVGID_2_" gradientUnits="userSpaceOnUse" x1="27.0168" y1="80.8589" x2="88.0116" y2="54.9361">
			<stop  offset="0" style="stop-color:#FFCC80;stop-opacity:0"/>
			<stop  offset="0.4864" style="stop-color:#FFCC80;stop-opacity:0.4"/>
			<stop  offset="1" style="stop-color:#FFCC80;stop-opacity:0"/>
		</linearGradient>
		<rect x="20.29" y="35.15" style="fill:url(#SVGID_2_);" width="88.08" height="59.71"/>
	</g>
</g>
</svg>
